svgs/sharp-regular/person-seat.svg

<svg xmlns="http://www.w3.org/2000/svg" viewBox="0 0 384 512"><!--! Font Awesome Pro 6.6.0 by @fontawesome - https://fontawesome.com License - https://fontawesome.com/license (Commercial License) Copyright 2024 Fonticons, Inc. --><path d="M144 128a48 48 0 1 0 0-96 48 48 0 1 0 0 96zm-32 32l-24 0 0 24 0 120c0 30.9 25.1 56 56 56l40 0 75 0 13.2 99.2L275 480l21 0 64 0 24 0 0-48-24 0-43 0-13.2-99.2L301 312l-21 0-72 0 0-56 56 0 24 0 0-48-24 0-56 0 0-24 0-24-24 0-72 0zm48 48l0 104-16 0c-4.4 0-8-3.6-8-8l0-96 24 0zM48 152l0-24L0 128l0 24L0 424l0 24 24 0 176 0 24 0 0-48-24 0L48 400l0-248z"/></svg>

<svg xmlns="http://www.w3.org/2000/svg" viewBox="0 0 384 512"><!--! Font Awesome Pro 6.4.2 by @fontawesome - https://fontawesome.com License - https://fontawesome.com/license (Commercial License) Copyright 2023 Fonticons, Inc. --><path d="M144 128a48 48 0 1 0 0-96 48 48 0 1 0 0 96zm-32 32H88v24V304c0 30.9 25.1 56 56 56h40 75l13.2 99.2L275 480h21 64 24V432H360 317l-13.2-99.2L301 312H280 208V256h56 24V208H264 208V184 160H184 112zm48 48V312H144c-4.4 0-8-3.6-8-8V208h24zM48 152V128H0v24V424v24H24 200h24V400H200 48V152z"/></svg>
